svgs/sharp-regular/calendar-circle-plus.svg

<svg xmlns="http://www.w3.org/2000/svg" viewBox="0 0 576 512"><!--! Font Awesome Pro 6.6.0 by @fontawesome - https://fontawesome.com License - https://fontawesome.com/license (Commercial License) Copyright 2024 Fonticons, Inc. --><path d="M152 0l0 24 0 40 144 0 0-40 0-24 48 0 0 24 0 40 104 0 0 80 0 48-16 0-32 0-48 0L48 192l0 272 236.5 0c12.3 18.8 28 35.1 46.3 48L48 512 0 512l0-48L0 192l0-48L0 64l104 0 0-40 0-24 48 0zM432 224a144 144 0 1 1 0 288 144 144 0 1 1 0-288zm16 80l0-16-32 0 0 16 0 48-48 0-16 0 0 32 16 0 48 0 0 48 0 16 32 0 0-16 0-48 48 0 16 0 0-32-16 0-48 0 0-48z"/></svg>

<svg xmlns="http://www.w3.org/2000/svg" viewBox="0 0 576 512"><!--! Font Awesome Pro 6.4.0 by @fontawesome - https://fontawesome.com License - https://fontawesome.com/license (Commercial License) Copyright 2023 Fonticons, Inc. --><path d="M152 0V24 64H296V24 0h48V24 64H448v80 48H432 400 352 48V464H284.5c12.3 18.8 28 35.1 46.3 48H48 0V464 192 144 64H104V24 0h48zM432 224a144 144 0 1 1 0 288 144 144 0 1 1 0-288zm16 80V288H416v16 48H368 352v32h16 48v48 16h32V432 384h48 16V352H496 448V304z"/></svg>
